dist/images/index/logo-liki-24-mobile.svg

<svg width="157" height="58" viewBox="0 0 157 58" fill="none" xmlns="http://www.w3.org/2000/svg">
<path fill-rule="evenodd" clip-rule="evenodd" d="M126.802 0.367065C119.57 0.689244 112.723 3.69064 107.615 8.77784C96.278 20.0337 96.278 38.2828 107.615 49.5386C112.723 54.6259 119.57 57.6273 126.802 57.9494V0.367065ZM148.673 8.77784C143.565 3.69104 136.718 0.689719 129.486 0.367065V57.9494C136.718 57.6268 143.565 54.6255 148.673 49.5386C160.01 38.2828 160.01 20.0337 148.673 8.77784Z" fill="#3FCFD5"/>
<path fill-rule="evenodd" clip-rule="evenodd" d="M119.338 24.9305V25.5483C119.338 27.1495 119.028 28.3853 116.988 30.801L112.88 35.7177H119.538V37.7663H109.991V35.9405L115.656 28.8343C116.732 27.4855 116.931 26.8972 116.931 25.5762V25.0714C116.931 23.2736 116.055 22.5705 113.986 22.5705C112.88 22.5705 111.408 22.8802 110.416 23.1883V21.1381C111.664 20.8005 112.994 20.5481 113.986 20.5481C117.668 20.5481 119.34 22.0362 119.34 24.9305H119.338ZM137.268 32.1777H142.424V23.6095L137.268 32.1777ZM144.746 32.1777H146.475V34.1443H144.746V37.7663H142.394V34.1443H134.691V32.4858L141.998 20.8841H144.746V32.176V32.1777Z" fill="white"/>
<path fill-rule="evenodd" clip-rule="evenodd" d="M3.75005 38.7433H13.5551V41.5491H0.543945V17.0559H3.75005V38.7433ZM27.8405 41.5491H31.0466V17.0559H27.8405V41.5491ZM56.6392 28.91L67.0838 41.5491H62.9754L53.3207 29.5459V41.5491H50.1163V17.0559H53.3224V28.8723L62.5209 17.0559H66.1038L56.6392 28.91ZM79.5133 41.5491H82.7177V17.0559H79.5116L79.5133 41.5491Z" fill="black"/>
</svg>

<svg width="157" height="58" viewBox="0 0 157 58" fill="none" xmlns="http://www.w3.org/2000/svg"><path fill-rule="evenodd" clip-rule="evenodd" d="M126.802.367a29.02 29.02 0 00-19.187 8.41c-11.337 11.257-11.337 29.506 0 40.762a29.02 29.02 0 0019.187 8.41V.367zm21.871 8.41a29.025 29.025 0 00-19.187-8.41V57.95a29.024 29.024 0 0019.187-8.41c11.337-11.256 11.337-29.505 0-40.761z" fill="#3FCFD5"/><path fill-rule="evenodd" clip-rule="evenodd" d="M119.338 24.93v.618c0 1.602-.31 2.837-2.35 5.253l-4.108 4.917h6.658v2.048h-9.547v-1.825l5.665-7.107c1.076-1.349 1.275-1.937 1.275-3.258v-.505c0-1.797-.876-2.5-2.945-2.5-1.106 0-2.578.31-3.57.617v-2.05c1.248-.338 2.578-.59 3.57-.59 3.682 0 5.354 1.488 5.354 4.383h-.002zm17.93 7.248h5.156V23.61l-5.156 8.568zm7.478 0h1.729v1.966h-1.729v3.622h-2.352v-3.622h-7.703v-1.658l7.307-11.602h2.748v11.294z" fill="#fff"/><path fill-rule="evenodd" clip-rule="evenodd" d="M3.75 38.743h9.805v2.806H.544V17.056H3.75v21.687zm24.09 2.806h3.207V17.056H27.84v24.493zm28.8-12.639l10.444 12.64h-4.109l-9.654-12.004v12.003h-3.205V17.056h3.206v11.816l9.199-11.816h3.583L56.639 28.91zm22.873 12.64h3.205V17.055h-3.206l.001 24.493z" fill="#000"/></svg>
